X:1
T:Title
%%score ( 1 2 ) 3
L:1/8
Q:1/4=120
M:4/4
K:F
V:1 treble nm="Strings 1, Soprano"
V:2 treble 
V:3 bass nm="Strings 1, Bass"
V:1
 z4 z2 [FA]>[CG] | [CF]2 [Af]2 [Ac]2 [FA]>[CG] | [CF]2 [CA]2 [A,C]2 [CF]>[CG] | %3
w: 1.~There~ is~|peace~ and~ joy~ in~ the~|Lord~ to day,~ More~ than~|
 [FA]2 F>[FA] [Fc]2 [FA]2 | [EG]6 [FA]>[CG] | [CF]2 [Af]2 [Ac]2 [FA]>[CG] | %6
w: all~ in~ this~ world~ of~|sin.~ There's~ a~|hap py~ life~ in~ the~|
 [CF]2 [CA]2 [A,C]2 F>[FG] | [FA]2 [Cc]>[DB] [CA]2 [CG]2 | [CF]6 [FA]>[CG] | %9
w: ho ly~ way;~ Praise~ the~|Lord,~ I~ have~ en tered~|in.~ * *|
 F2- [DF-]2 [CF]2 [Af]>[Fd] | c2- [Ec-]2 [Fc]2 [FA]>[CG] | F6 z2 | G2- [FG]2 G2 [FA]>[CG] | %13
w: ||||
 C2 D2 C2 [Af]>[Fd] | c2- [Ec-]2 [Fc]2 F>[FG] | [FA]2 [Cc]>[DB] [CA]2 [CG]2 | [CF]6 z2 |] %17
w: ||||
V:2
 x8 | x8 | x8 | x8 | x8 | x8 | x8 | x8 | x8 | C2 z2 z4 | F2 z2 z4 | C2 D2 C2 [FA]2 | E2 z2 z4 | %13
 F6 z2 | F2 z2 z4 | x8 | x8 |] %17
V:3
 z4 z2 [F,C]>[F,B,] | [F,A,]2 [F,C]2 [F,F]2 [F,C]>[F,B,] | [F,A,]2 F,2 F,2 [F,A,]>[F,B,] | %3
 [F,C]2 [F,A,]>[F,C] [A,C]2 [F,C]2 | [C,C]6 [F,C]>[F,B,] | [F,A,]2 [F,C]2 [F,F]2 [F,C]>[F,B,] | %6
 [F,A,]2 F,2 F,2 [A,C]>[B,D] | C2 [A,,F,]>[B,,F,] [C,F,]2 [C,B,]2 | [F,,F,A,]6 [F,C]>[F,B,] | %9
 [F,A,]2 [F,B,]2 [F,A,]2 [F,C]>[F,B,] | [F,A,]2 [G,B,]2 [A,C]2 [F,C]>[F,B,] | %11
 [F,A,]2 [F,B,]2 [F,A,]2 [F,C]2 | [C,C]2 [D,=B,]2 [E,_B,]2 [F,C]>[F,B,] | %13
 [F,A,]2 [F,B,]2 [F,A,]2 [F,C]>[F,B,] | [F,A,]2 [G,B,]2 [A,C]2 [A,C]>[B,D] | %15
 C2 [A,,F,]>[B,,F,] [C,F,]2 [C,B,]2 | [F,,F,A,]6 z2 |] %17

